client/src/assets/Neutral.svg

<svg width="24" height="24" viewBox="0 0 24 24" fill="none" xmlns="http://www.w3.org/2000/svg">
<path d="M15.5 11C16.3284 11 17 10.3284 17 9.5C17 8.67157 16.3284 8 15.5 8C14.6716 8 14 8.67157 14 9.5C14 10.3284 14.6716 11 15.5 11Z" fill="black"/>
<path d="M8.5 11C9.32843 11 10 10.3284 10 9.5C10 8.67157 9.32843 8 8.5 8C7.67157 8 7 8.67157 7 9.5C7 10.3284 7.67157 11 8.5 11Z" fill="black"/>
<path d="M11.99 2C6.47 2 2 6.48 2 12C2 17.52 6.47 22 11.99 22C17.52 22 22 17.52 22 12C22 6.48 17.52 2 11.99 2ZM12 20C7.58 20 4 16.42 4 12C4 7.58 7.58 4 12 4C16.42 4 20 7.58 20 12C20 16.42 16.42 20 12 20ZM12 16C11.27 16 10.62 15.82 10.04 15.48C9.92 15.62 9.18 16.46 9.03 16.63C9.89 17.18 10.9 17.5 12 17.5C13.11 17.5 14.12 17.17 14.98 16.62C14.01 15.53 14.97 16.6 13.97 15.47C13.38 15.82 12.73 16 12 16Z" fill="black"/>
</svg>

<?xml version="1.0" encoding="utf-8"?>
<!-- Generator: Adobe Illustrator 25.2.3, SVG Export Plug-In . SVG Version: 6.00 Build 0)  -->
<svg version="1.1" id="Layer_1" xmlns="http://www.w3.org/2000/svg" xmlns:xlink="http://www.w3.org/1999/xlink" x="0px" y="0px"
	 viewBox="0 0 24 24" style="enable-background:new 0 0 24 24;" xml:space="preserve">
<style type="text/css">
	.st0{fill:#FBBC05;}
</style>
<path class="st0" d="M15.5,11c0.8,0,1.5-0.7,1.5-1.5C17,8.7,16.3,8,15.5,8S14,8.7,14,9.5C14,10.3,14.7,11,15.5,11z"/>
<path class="st0" d="M8.5,11c0.8,0,1.5-0.7,1.5-1.5C10,8.7,9.3,8,8.5,8S7,8.7,7,9.5C7,10.3,7.7,11,8.5,11z"/>
<path class="st0" d="M12,2C6.5,2,2,6.5,2,12s4.5,10,10,10c5.5,0,10-4.5,10-10S17.5,2,12,2z M12,20c-4.4,0-8-3.6-8-8s3.6-8,8-8
	s8,3.6,8,8S16.4,20,12,20z M12,16c-0.7,0-1.4-0.2-2-0.5c-0.1,0.1-0.9,1-1,1.1c0.9,0.6,1.9,0.9,3,0.9c1.1,0,2.1-0.3,3-0.9
	c-1-1.1,0,0-1-1.2C13.4,15.8,12.7,16,12,16z"/>
</svg>
